;FLAVOR:Marlin
;TIME:1390
;Filament used: 0.927793m
;Layer height: 0.2
;MINX:100.836
;MINY:112.134
;MINZ:0.2
;MAXX:134.164
;MAXY:145.463
;MAXZ:22.6
;Generated with Cura_SteamEngine 4.7.1
M140 S50
M105
M190 S50
M104 S200
M105
M109 S200
M82 ;absolute extrusion mode
; Ender 3 Custom Start G-code
G92 E0 ; Reset Extruder
G28 ; Home all axes
G1 Z2.0 F3000 ; Move Z Axis up little to prevent scratching of Heat Bed
G1 X0.1 Y20 Z0.3 F5000.0 ; Move to start position
G1 X0.1 Y200.0 Z0.3 F1500.0 E15 ; Draw the first line
G1 X0.4 Y200.0 Z0.3 F5000.0 ; Move to side a little
G1 X0.4 Y20 Z0.3 F1500.0 E30 ; Draw the second line
G92 E0 ; Reset Extruder
G1 Z2.0 F3000 ; Move Z Axis up little to prevent scratching of Heat Bed
G1 X5 Y20 Z0.3 F5000.0 ; Move over to prevent blob squish
G92 E0
G92 E0
G1 F2700 E-5
;LAYER_COUNT:113
;LAYER:0
M107
G0 F6000 X106.235 Y116.518 Z0.2
;TYPE:SKIRT
G1 F2700 E0
G1 F1200 X106.408 Y116.361 E0.00839
G1 X106.776 Y116.042 E0.02589
G1 X106.992 Y115.864 E0.03594
G1 X107.372 Y115.566 E0.05329
G1 X107.669 Y115.344 E0.06661
G1 X108.095 Y115.043 E0.08534
G1 X108.344 Y114.876 E0.09611
G1 X108.761 Y114.61 E0.11388
G1 X109.005 Y114.463 E0.12411
G1 X109.288 Y114.299 E0.13586
G1 X109.506 Y114.177 E0.14483
G1 X109.907 Y113.964 E0.16115
G1 X110.11 Y113.862 E0.16931
G1 X110.457 Y113.696 E0.18312
G1 X110.828 Y113.529 E0.19774
G1 X111.123 Y113.402 E0.20927
G1 X111.707 Y113.172 E0.23182
G1 X111.874 Y113.112 E0.2382
G1 X112.109 Y113.031 E0.24712
G1 X112.356 Y112.949 E0.25647
G1 X112.668 Y112.85 E0.26823
G1 X113.023 Y112.747 E0.28151
G1 X113.275 Y112.679 E0.29088
G1 X113.568 Y112.605 E0.30174
G1 X113.803 Y112.549 E0.31042
G1 X114.287 Y112.446 E0.32819
G1 X114.559 Y112.395 E0.33813
G1 X115.059 Y112.314 E0.35633
G1 X115.352 Y112.274 E0.36695
G1 X115.729 Y112.229 E0.38059
G1 X115.972 Y112.205 E0.38936
G1 X116.29 Y112.179 E0.40082
G1 X116.513 Y112.164 E0.40885
G1 X116.817 Y112.148 E0.41978
G1 X117.154 Y112.138 E0.4319
G1 X117.466 Y112.134 E0.4431
G1 X117.961 Y112.139 E0.46089
G1 X118.129 Y112.145 E0.46692
G1 X118.476 Y112.164 E0.47941
G1 X118.834 Y112.189 E0.4923
G1 X119.291 Y112.231 E0.50878
G1 X119.56 Y112.262 E0.51851
G1 X119.954 Y112.315 E0.53279
G1 X120.154 Y112.346 E0.54006
G1 X120.423 Y112.392 E0.54986
G1 X120.571 Y112.419 E0.55527
G1 X120.863 Y112.476 E0.56595
G1 X121.145 Y112.536 E0.57631
G1 X121.706 Y112.672 E0.59705
G1 X121.849 Y112.711 E0.60237
G1 X122.111 Y112.787 E0.61217
G1 X122.522 Y112.911 E0.62759
G1 X123.016 Y113.073 E0.64626
G1 X123.217 Y113.145 E0.65393
G1 X123.552 Y113.272 E0.6668
G1 X123.808 Y113.374 E0.6767
G1 X124.286 Y113.579 E0.69538
G1 X124.565 Y113.707 E0.70641
G1 X124.874 Y113.855 E0.71872
G1 X125.022 Y113.929 E0.72466
G1 X125.258 Y114.051 E0.73421
G1 X125.5 Y114.18 E0.74406
G1 X125.969 Y114.446 E0.76342
G1 X126.173 Y114.569 E0.77198
G1 X126.415 Y114.72 E0.78223
G1 X126.616 Y114.849 E0.79081
G1 X126.908 Y115.043 E0.8034
G1 X127.083 Y115.164 E0.81104
G1 X127.474 Y115.449 E0.82842
G1 X127.707 Y115.627 E0.83895
G1 X127.959 Y115.825 E0.85047
G1 X128.132 Y115.966 E0.85848
G1 X128.374 Y116.17 E0.86985
G1 X128.533 Y116.308 E0.87741
G1 X128.884 Y116.628 E0.89448
G1 X129.076 Y116.811 E0.904
G1 X129.363 Y117.095 E0.91851
G1 X129.552 Y117.29 E0.92826
G1 X129.857 Y117.619 E0.94438
G1 X130.062 Y117.85 E0.95547
G1 X130.343 Y118.181 E0.97107
G1 X130.54 Y118.423 E0.98228
G1 X130.854 Y118.828 E1.00069
G1 X130.978 Y118.997 E1.00821
G1 X131.169 Y119.266 E1.02007
G1 X131.439 Y119.665 E1.03737
G1 X131.685 Y120.052 E1.05384
G1 X131.819 Y120.274 E1.06316
G1 X131.961 Y120.518 E1.0733
G1 X132.089 Y120.744 E1.08263
G1 X132.337 Y121.209 E1.10156
G1 X132.415 Y121.365 E1.10782
G1 X132.542 Y121.628 E1.11832
G1 X132.674 Y121.912 E1.12956
G1 X132.797 Y122.188 E1.14042
G1 X132.888 Y122.4 E1.14871
G1 X133.091 Y122.91 E1.16842
G1 X133.164 Y123.109 E1.17604
G1 X133.265 Y123.396 E1.18697
G1 X133.347 Y123.642 E1.19628
G1 X133.453 Y123.98 E1.20901
G1 X133.541 Y124.282 E1.2203
G1 X133.613 Y124.546 E1.23013
G1 X133.696 Y124.875 E1.24232
G1 X133.752 Y125.111 E1.25104
G1 X133.852 Y125.58 E1.26826
G1 X133.89 Y125.782 E1.27564
G1 X133.951 Y126.141 E1.28872
G1 X133.989 Y126.392 E1.29784
G1 X134.026 Y126.664 E1.3077
G1 X134.057 Y126.914 E1.31675
G1 X134.106 Y127.401 E1.33433
G1 X134.123 Y127.626 E1.34244
G1 X134.143 Y127.954 E1.35424
G1 X134.154 Y128.209 E1.36341
G1 X134.163 Y128.614 E1.37796
G1 X134.164 Y128.908 E1.38852
G1 X134.155 Y129.363 E1.40487
G1 X134.147 Y129.557 E1.41185
G1 X134.13 Y129.864 E1.42289
G1 X134.113 Y130.102 E1.43146
G1 X134.087 Y130.402 E1.44228
G1 X134.062 Y130.649 E1.4512
G1 X133.992 Y131.193 E1.4709
G1 X133.956 Y131.424 E1.4793
G1 X133.916 Y131.665 E1.48807
G1 X133.877 Y131.881 E1.49596
G1 X133.811 Y132.214 E1.50815
G1 X133.751 Y132.493 E1.5184
G1 X133.621 Y133.026 E1.53811
G1 X133.584 Y133.162 E1.54317
G1 X133.499 Y133.456 E1.55417
G1 X133.386 Y133.827 E1.5681
G1 X133.271 Y134.182 E1.5815
G1 X133.202 Y134.382 E1.5891
G1 X133.025 Y134.856 E1.60728
G1 X132.854 Y135.278 E1.62363
G1 X132.821 Y135.356 E1.62667
G1 X132.693 Y135.646 E1.63806
G1 X132.589 Y135.872 E1.647
G1 X132.434 Y136.194 E1.65983
G1 X132.358 Y136.345 E1.66591
G1 X132.248 Y136.557 E1.67449
G1 X132.119 Y136.799 E1.68434
G1 X131.857 Y137.261 E1.70341
G1 X131.733 Y137.467 E1.71205
G1 X131.58 Y137.714 E1.72249
G1 X131.453 Y137.912 E1.73094
G1 X131.151 Y138.356 E1.75023
G1 X130.952 Y138.633 E1.76248
G1 X130.718 Y138.946 E1.77652
G1 X130.525 Y139.194 E1.7878
G1 X130.136 Y139.664 E1.80972
G1 X129.889 Y139.945 E1.82316
G1 X129.508 Y140.355 E1.84326
G1 X129.351 Y140.515 E1.85131
G1 X129.105 Y140.758 E1.86374
G1 X128.875 Y140.977 E1.87514
G1 X128.512 Y141.306 E1.89274
G1 X128.298 Y141.491 E1.9029
G1 X127.964 Y141.767 E1.91847
G1 X127.737 Y141.947 E1.92887
G1 X127.411 Y142.196 E1.94361
G1 X127.241 Y142.32 E1.95117
G1 X126.946 Y142.528 E1.96413
G1 X126.622 Y142.745 E1.97814
G1 X126.418 Y142.876 E1.98685
G1 X126.145 Y143.046 E1.9984
G1 X125.901 Y143.19 E2.00858
G1 X125.699 Y143.306 E2.01695
G1 X125.321 Y143.513 E2.03243
G1 X125.011 Y143.674 E2.04497
G1 X124.463 Y143.938 E2.06682
G1 X124.14 Y144.082 E2.07953
G1 X123.766 Y144.24 E2.09411
G1 X123.583 Y144.313 E2.10119
G1 X123.276 Y144.43 E2.11299
G1 X122.997 Y144.531 E2.12365
G1 X122.446 Y144.713 E2.14449
G1 X122.099 Y144.813 E2.15746
G1 X121.581 Y144.953 E2.17674
G1 X121.242 Y145.038 E2.18929
G1 X121.165 Y145.056 E2.19213
G1 X120.721 Y145.15 E2.20844
G1 X120.438 Y145.203 E2.21878
G1 X120.123 Y145.257 E2.23026
G1 X119.994 Y145.277 E2.23495
G1 X119.72 Y145.315 E2.24488
G1 X119.508 Y145.342 E2.25256
G1 X119.069 Y145.389 E2.26842
G1 X118.734 Y145.417 E2.2805
G1 X118.318 Y145.443 E2.29547
G1 X118.083 Y145.453 E2.30392
G1 X117.684 Y145.462 E2.31825
G1 X117.391 Y145.463 E2.32878
G1 X116.936 Y145.454 E2.34513
G1 X116.742 Y145.446 E2.3521
G1 X116.435 Y145.429 E2.36315
G1 X116.197 Y145.412 E2.37172
G1 X115.762 Y145.372 E2.38741
G1 X115.448 Y145.336 E2.39876
G1 X115.063 Y145.284 E2.41272
G1 X114.861 Y145.253 E2.42006
G1 X114.577 Y145.205 E2.4304
G1 X114.429 Y145.178 E2.43581
G1 X114.093 Y145.111 E2.44811
G1 X113.794 Y145.046 E2.45911
G1 X113.263 Y144.916 E2.47874
G1 X112.974 Y144.833 E2.48954
G1 X112.408 Y144.662 E2.51078
G1 X112.025 Y144.538 E2.52524
G1 X111.918 Y144.501 E2.52931
G1 X111.5 Y144.346 E2.54532
G1 X111.28 Y144.259 E2.55382
G1 X110.955 Y144.124 E2.56646
G1 X110.612 Y143.973 E2.57993
G1 X110.412 Y143.881 E2.58783
G1 X110.113 Y143.737 E2.59975
G1 X109.975 Y143.668 E2.6053
G1 X109.71 Y143.53 E2.61603
G1 X109.522 Y143.429 E2.6237
G1 X109.281 Y143.296 E2.63358
G1 X109.157 Y143.225 E2.63872
G1 X108.91 Y143.079 E2.64902
G1 X108.738 Y142.974 E2.65626
G1 X108.517 Y142.835 E2.66564
G1 X108.37 Y142.74 E2.67193
G1 X108.105 Y142.563 E2.68337
G1 X107.917 Y142.433 E2.69158
G1 X107.661 Y142.25 E2.70289
G1 X107.577 Y142.188 E2.70664
G1 X107.353 Y142.017 E2.71676
G1 X107.092 Y141.813 E2.72866
G1 X106.66 Y141.456 E2.74879
G1 X106.509 Y141.324 E2.756
G1 X106.328 Y141.162 E2.76472
G1 X106.135 Y140.985 E2.77413
G1 X105.801 Y140.665 E2.79074
G1 X105.573 Y140.436 E2.80235
G1 X105.28 Y140.129 E2.81759
G1 X105.116 Y139.95 E2.82632
G1 X104.782 Y139.567 E2.84457
G1 X104.555 Y139.293 E2.85735
G1 X104.312 Y138.988 E2.87136
G1 X104.132 Y138.75 E2.88208
G1 X104.011 Y138.585 E2.88943
G1 X103.812 Y138.304 E2.9018
G1 X103.549 Y137.914 E2.91869
G1 X103.317 Y137.548 E2.93426
G1 X103.175 Y137.313 E2.94412
G1 X102.998 Y137.008 E2.95679
G1 X102.868 Y136.775 E2.96637
G1 X102.643 Y136.348 E2.98371
G1 X102.545 Y136.151 E2.99161
G1 X102.416 Y135.882 E3.00233
G1 X102.338 Y135.713 E3.00902
G1 X102.229 Y135.469 E3.01862
G1 X102.149 Y135.283 E3.02589
G1 X101.984 Y134.875 E3.0417
G1 X101.867 Y134.567 E3.05353
G1 X101.721 Y134.157 E3.06917
G1 X101.648 Y133.937 E3.07749
G1 X101.539 Y133.589 E3.09059
G1 X101.452 Y133.288 E3.10185
G1 X101.38 Y133.022 E3.11175
G1 X101.313 Y132.758 E3.12153
G1 X101.259 Y132.535 E3.12977
G1 X101.139 Y131.974 E3.15038
G1 X101.097 Y131.745 E3.15874
G1 X101.044 Y131.429 E3.17025
G1 X101.01 Y131.204 E3.17843
G1 X100.973 Y130.931 E3.18832
G1 X100.941 Y130.672 E3.1977
G1 X100.89 Y130.148 E3.21661
G1 X100.873 Y129.91 E3.22518
G1 X100.856 Y129.618 E3.23568
G1 X100.846 Y129.384 E3.2441
G1 X100.837 Y128.984 E3.25847
G1 X100.836 Y128.69 E3.26903
G1 X100.845 Y128.218 E3.28599
G1 X100.854 Y128.008 E3.29354
G1 X100.871 Y127.712 E3.30419
G1 X100.887 Y127.49 E3.31218
G1 X100.91 Y127.222 E3.32185
G1 X100.932 Y126.999 E3.3299
G1 X100.999 Y126.463 E3.3493
G1 X101.04 Y126.194 E3.35907
G1 X101.094 Y125.875 E3.3707
G1 X101.131 Y125.675 E3.378
G1 X101.177 Y125.441 E3.38657
G1 X101.231 Y125.183 E3.39604
G1 X101.376 Y124.583 E3.41821
G1 X101.414 Y124.444 E3.42339
G1 X101.488 Y124.188 E3.43296
G1 X101.612 Y123.777 E3.44838
G1 X101.774 Y123.283 E3.46705
G1 X101.846 Y123.082 E3.47472
G1 X101.981 Y122.729 E3.4883
G1 X102.106 Y122.417 E3.50037
G1 X102.322 Y121.916 E3.51997
G1 X102.393 Y121.763 E3.52603
G1 X102.522 Y121.495 E3.53671
G1 X102.648 Y121.243 E3.54683
G1 X102.779 Y120.991 E3.55703
G1 X102.9 Y120.765 E3.56624
G1 X103.18 Y120.274 E3.58655
G1 X103.303 Y120.072 E3.59504
G1 X103.429 Y119.871 E3.60356
G1 X103.547 Y119.687 E3.61142
G1 X103.831 Y119.267 E3.62963
G1 X104.033 Y118.984 E3.64212
G1 X104.298 Y118.63 E3.658
G1 X104.466 Y118.415 E3.6678
G1 X104.8 Y118.009 E3.68669
G1 X104.984 Y117.797 E3.69677
G1 X105.211 Y117.544 E3.70898
G1 X105.418 Y117.321 E3.71991
G1 X105.814 Y116.918 E3.74021
G1 X106.01 Y116.729 E3.74999
G1 X106.235 Y116.518 E3.76107
G1 F2700 E-1.23893
;MESH:Top.STL
G0 F6000 X112.196 Y124.019
G0 X112.985 Y124.763
G0 X112.595 Y128.81
G0 X112.712 Y129.86
G0 X113.067 Y130.896
G0 X113.652 Y131.838
G0 X114.439 Y132.63
G0 X115.362 Y133.213
G0 X115.959 Y133.421
G0 X117.5 Y133.874
;TYPE:WALL-INNER
G1 F2700 E3.76107
G1 F1200 X117.227 Y133.865 E3.77088
G1 X116.914 Y133.838 E3.78216
G1 X116.645 Y133.8 E3.79192
G1 X116.374 Y133.747 E3.80184
G1 X116.086 Y133.675 E3.8125
G1 X115.846 Y133.596 E3.82158
G1 X115.558 Y133.486 E3.83265
G1 X115.291 Y133.368 E3.84314
G1 X115.025 Y133.229 E3.85392
G1 X114.796 Y133.094 E3.86347
G1 X114.584 Y132.951 E3.87266
G1 X114.331 Y132.762 E3.884
G1 X114.115 Y132.58 E3.89415
G1 X113.909 Y132.384 E3.90436
G1 X113.733 Y132.198 E3.91356
G1 X113.516 Y131.941 E3.92564
G1 X113.366 Y131.742 E3.93459
G1 X113.187 Y131.474 E3.94617
G1 X113.067 Y131.269 E3.9547
G1 X112.916 Y130.975 E3.96657
G1 X112.823 Y130.766 E3.97479
G1 X112.701 Y130.447 E3.98706
G1 X112.625 Y130.207 E3.9961
G1 X112.545 Y129.893 E4.00774
G1 X112.497 Y129.65 E4.01664
G1 X112.461 Y129.394 E4.02592
G1 X112.432 Y129.054 E4.03818
G1 X112.425 Y128.804 E4.04717
G1 X112.432 Y128.544 E4.05651
G1 X112.461 Y128.204 E4.06877
G1 X112.497 Y127.946 E4.07812
G1 X112.545 Y127.704 E4.08699
G1 X112.629 Y127.375 E4.09918
G1 X112.708 Y127.132 E4.10836
G1 X112.818 Y126.842 E4.1195
G1 X112.92 Y126.614 E4.12847
G1 X113.063 Y126.337 E4.13967
G1 X113.204 Y126.097 E4.14967
G1 X113.36 Y125.863 E4.15977
G1 X113.529 Y125.64 E4.16982
G1 X113.706 Y125.43 E4.17969
G1 X113.934 Y125.187 E4.19166
G1 X114.114 Y125.018 E4.20053
G1 X114.325 Y124.839 E4.21047
G1 X114.585 Y124.644 E4.22214
G1 X114.794 Y124.504 E4.23118
G1 X115.022 Y124.371 E4.24066
G1 X115.308 Y124.222 E4.25224
G1 X115.54 Y124.119 E4.26136
G1 X115.854 Y123.999 E4.27344
G1 X116.065 Y123.932 E4.28139
G1 X116.421 Y123.841 E4.29459
G1 X116.622 Y123.801 E4.30195
G1 X116.93 Y123.756 E4.31313
G1 X117.215 Y123.734 E4.3234
G1 X117.504 Y123.724 E4.33379
G1 X117.772 Y123.733 E4.34342
G1 X118.084 Y123.759 E4.35466
G1 X118.375 Y123.8 E4.36522
G1 X118.596 Y123.844 E4.37331
G1 X118.912 Y123.924 E4.38502
G1 X119.167 Y124.006 E4.39465
G1 X119.458 Y124.118 E4.40585
G1 X119.678 Y124.216 E4.4145
G1 X119.959 Y124.361 E4.42586
G1 X120.207 Y124.507 E4.43619
G1 X120.431 Y124.656 E4.44586
G1 X120.666 Y124.832 E4.4564
G1 X120.864 Y125 E4.46573
G1 X121.103 Y125.224 E4.4775
G1 X121.279 Y125.412 E4.48675
G1 X121.471 Y125.64 E4.49745
G1 X121.631 Y125.851 E4.50697
G1 X121.806 Y126.113 E4.51828
G1 X121.939 Y126.34 E4.52774
G1 X122.071 Y126.595 E4.53805
G1 X122.192 Y126.864 E4.54864
G1 X122.282 Y127.097 E4.55762
G1 X122.367 Y127.364 E4.56768
G1 X122.458 Y127.72 E4.58088
G1 X122.502 Y127.937 E4.58883
G1 X122.539 Y128.204 E4.59852
G1 X122.568 Y128.544 E4.61077
G1 X122.575 Y128.793 E4.61972
G1 X122.568 Y129.054 E4.6291
G1 X122.539 Y129.394 E4.64136
G1 X122.503 Y129.65 E4.65064
G1 X122.455 Y129.893 E4.65954
G1 X122.368 Y130.233 E4.67215
G1 X122.303 Y130.437 E4.67984
G1 X122.177 Y130.766 E4.69249
G1 X122.08 Y130.984 E4.70107
G1 X121.943 Y131.252 E4.71188
G1 X121.801 Y131.494 E4.72196
G1 X121.64 Y131.735 E4.73237
G1 X121.484 Y131.941 E4.74165
G1 X121.267 Y132.198 E4.75373
G1 X121.091 Y132.384 E4.76293
G1 X120.885 Y132.58 E4.77314
G1 X120.669 Y132.762 E4.78329
G1 X120.416 Y132.951 E4.79463
G1 X120.204 Y133.094 E4.80382
G1 X119.975 Y133.229 E4.81337
G1 X119.709 Y133.368 E4.82415
G1 X119.443 Y133.486 E4.8346
G1 X119.163 Y133.592 E4.84536
G1 X118.909 Y133.675 E4.85496
G1 X118.599 Y133.752 E4.86643
G1 X118.355 Y133.8 E4.87536
G1 X118.086 Y133.838 E4.88512
G1 X117.773 Y133.865 E4.89641
G1 X117.5 Y133.874 E4.90622
G0 F6000 X117.5 Y134.274
G1 F1200 X117.199 Y134.264 E4.91704
G1 X116.88 Y134.237 E4.92854
G1 X116.58 Y134.195 E4.93942
G1 X116.282 Y134.136 E4.95033
G1 X115.974 Y134.059 E4.96173
G1 X115.712 Y133.973 E4.97164
G1 X115.402 Y133.855 E4.98355
G1 X115.116 Y133.728 E4.99479
G1 X114.84 Y133.584 E5.00598
G1 X114.583 Y133.432 E5.0167
G1 X114.349 Y133.275 E5.02682
G1 X114.081 Y133.075 E5.03884
G1 X113.857 Y132.886 E5.04936
G1 X113.841 Y132.87 E5.05018
G1 X113.625 Y132.666 E5.06085
G1 X113.428 Y132.457 E5.07117
G1 X113.21 Y132.199 E5.0833
G1 X113.036 Y131.969 E5.09366
G1 X112.854 Y131.696 E5.10544
G1 X112.712 Y131.454 E5.11552
G1 X112.56 Y131.158 E5.12748
G1 X112.449 Y130.909 E5.13727
G1 X112.327 Y130.59 E5.14954
G1 X112.237 Y130.306 E5.16024
G1 X112.157 Y129.992 E5.17188
G1 X112.102 Y129.714 E5.18206
G1 X112.062 Y129.428 E5.19243
G1 X112.033 Y129.088 E5.20469
G1 X112.025 Y128.804 E5.21489
G1 X112.033 Y128.51 E5.22546
G1 X112.062 Y128.17 E5.23772
G1 X112.102 Y127.882 E5.24816
G1 X112.157 Y127.605 E5.25831
G1 X112.244 Y127.265 E5.27091
G1 X112.33 Y126.998 E5.28099
G1 X112.444 Y126.699 E5.29248
G1 X112.56 Y126.439 E5.30271
G1 X112.712 Y126.145 E5.3146
G1 X112.866 Y125.882 E5.32555
G1 X113.033 Y125.633 E5.33632
G1 X113.223 Y125.382 E5.34762
G1 X113.409 Y125.161 E5.358
G1 X113.642 Y124.913 E5.37022
G1 X113.845 Y124.722 E5.38023
G1 X114.067 Y124.535 E5.39066
G1 X114.085 Y124.519 E5.39153
G1 X114.353 Y124.318 E5.40356
G1 X114.58 Y124.166 E5.41337
